src/gui/emoticons/shout.svg

<svg xmlns="http://www.w3.org/2000/svg" xmlns:xlink="http://www.w3.org/1999/xlink" width="16pt" height="16pt" version="1.1" viewBox="0 0 16 16"><defs><linearGradient id="linear0" x1="64" x2="64" y1="19.72" y2="107.7" gradientTransform="matrix(0.125,0,0,0.125,0,0)" gradientUnits="userSpaceOnUse"><stop offset=".5" style="stop-color:#fee133;stop-opacity:1"/><stop offset=".612" style="stop-color:#fede32;stop-opacity:1"/><stop offset=".708" style="stop-color:#fcd32f;stop-opacity:1"/><stop offset=".797" style="stop-color:#fac12b;stop-opacity:1"/><stop offset=".883" style="stop-color:#f7a924;stop-opacity:1"/><stop offset=".9" style="stop-color:#f6a323;stop-opacity:1"/></linearGradient></defs><g id="surface1"><path style="stroke:none;fill-rule:nonzero;fill:url(#linear0)" d="M 8 14.988281 C 4.511719 14.988281 0.75 12.800781 0.75 8 C 0.75 3.199219 4.511719 1.011719 8 1.011719 C 9.9375 1.011719 11.726562 1.648438 13.050781 2.8125 C 14.488281 4.085938 15.25 5.886719 15.25 8 C 15.25 10.113281 14.488281 11.898438 13.050781 13.175781 C 11.726562 14.335938 9.925781 14.988281 8 14.988281 Z M 8 14.988281"/><path style="stroke:none;fill-rule:nonzero;fill:#eb8f00;fill-opacity:1" d="M 8 1.261719 C 9.875 1.261719 11.613281 1.875 12.875 3 C 14.261719 4.226562 15 5.949219 15 8 C 15 10.039062 14.261719 11.761719 12.875 12.988281 C 11.601562 14.113281 9.863281 14.738281 8 14.738281 C 6.125 14.738281 4.386719 14.125 3.125 13.011719 C 1.738281 11.789062 1 10.0625 1 8 C 1 5.9375 1.738281 4.199219 3.125 2.976562 C 4.386719 1.875 6.113281 1.261719 8 1.261719 M 8 0.761719 C 4.101562 0.761719 0.5 3.261719 0.5 8 C 0.5 12.710938 4.101562 15.238281 8 15.238281 C 11.898438 15.238281 15.5 12.648438 15.5 8 C 15.5 3.324219 11.886719 0.761719 8 0.761719 Z M 8 0.761719"/><path style="stroke:none;fill-rule:nonzero;fill:#242424;fill-opacity:1" d="M 9.699219 11.550781 C 9.699219 12.4375 8.988281 13.148438 8.101562 13.148438 C 7.210938 13.148438 6.5 12.4375 6.5 11.550781 C 6.5 10.664062 7.210938 9.949219 8.101562 9.949219 C 8.988281 9.949219 9.699219 10.675781 9.699219 11.550781 Z M 9.699219 11.550781"/><path style="stroke:none;fill-rule:nonzero;fill:#242424;fill-opacity:1" d="M 10.710938 5.863281 C 11.238281 5.863281 11.710938 6.300781 11.710938 7.039062 C 11.710938 7.773438 11.238281 8.210938 10.710938 8.210938 C 10.1875 8.210938 9.710938 7.773438 9.710938 7.039062 C 9.710938 6.300781 10.1875 5.863281 10.710938 5.863281 Z M 10.710938 5.863281"/><path style="stroke:none;fill-rule:nonzero;fill:#242424;fill-opacity:1" d="M 5.273438 5.863281 C 4.75 5.863281 4.273438 6.300781 4.273438 7.039062 C 4.273438 7.773438 4.75 8.210938 5.273438 8.210938 C 5.800781 8.210938 6.273438 7.773438 6.273438 7.039062 C 6.273438 6.300781 5.800781 5.863281 5.273438 5.863281 Z M 5.273438 5.863281"/><path style="fill-rule:nonzero;fill:#eb8f00;fill-opacity:1;stroke-width:1;stroke-linecap:butt;stroke-linejoin:miter;stroke:#eb8f00;stroke-opacity:1;stroke-miterlimit:10" d="M 83.40625 31.3125 L 83.3125 31.3125 C 81.09375 31.25 80.53125 28.0625 83 27.625 C 84.84375 27.34375 86.875 27.375 88.84375 27.6875 C 94.375 28.5 99.0625 31.5625 102.0625 35.40625 C 103.5625 37.375 100.90625 39.3125 99.28125 37.8125 C 95.0625 34.125 89.40625 31.59375 83.40625 31.3125 Z M 83.40625 31.3125" transform="matrix(0.125,0,0,0.125,0,0)"/><path style="fill-rule:nonzero;fill:#eb8f00;fill-opacity:1;stroke-width:1;stroke-linecap:butt;stroke-linejoin:miter;stroke:#eb8f00;stroke-opacity:1;stroke-miterlimit:10" d="M 44.84375 31.3125 L 44.9375 31.3125 C 47.15625 31.25 47.71875 28.0625 45.25 27.625 C 43.40625 27.34375 41.375 27.375 39.40625 27.6875 C 33.875 28.5 29.1875 31.5625 26.1875 35.40625 C 24.6875 37.375 27.34375 39.3125 28.96875 37.8125 C 33.1875 34.125 38.84375 31.59375 44.84375 31.3125 Z M 44.84375 31.3125" transform="matrix(0.125,0,0,0.125,0,0)"/></g></svg>

<svg xmlns="http://www.w3.org/2000/svg" width="16pt" height="16pt" viewBox="0 0 16 16"><defs><linearGradient id="a" x1="64" x2="64" y1="19.72" y2="107.7" gradientTransform="scale(.125)" gradientUnits="userSpaceOnUse"><stop offset=".5" style="stop-color:#fee133;stop-opacity:1"/><stop offset=".612" style="stop-color:#fede32;stop-opacity:1"/><stop offset=".708" style="stop-color:#fcd32f;stop-opacity:1"/><stop offset=".797" style="stop-color:#fac12b;stop-opacity:1"/><stop offset=".883" style="stop-color:#f7a924;stop-opacity:1"/><stop offset=".9" style="stop-color:#f6a323;stop-opacity:1"/></linearGradient></defs><path d="M8 14.988C4.512 14.988.75 12.801.75 8 .75 3.2 4.512 1.012 8 1.012c1.938 0 3.727.636 5.05 1.8 1.438 1.274 2.2 3.075 2.2 5.188s-.762 3.898-2.2 5.176c-1.323 1.16-3.124 1.812-5.05 1.812m0 0" style="stroke:none;fill-rule:nonzero;fill:url(#a)"/><path d="M8 1.262c1.875 0 3.613.613 4.875 1.738C14.262 4.227 15 5.95 15 8c0 2.04-.738 3.762-2.125 4.988-1.273 1.125-3.012 1.75-4.875 1.75-1.875 0-3.613-.613-4.875-1.726C1.738 11.789 1 10.062 1 8s.738-3.8 2.125-5.023C4.387 1.875 6.113 1.262 8 1.262m0-.5C4.102.762.5 3.262.5 8c0 4.71 3.602 7.238 7.5 7.238s7.5-2.59 7.5-7.238C15.5 3.324 11.887.762 8 .762m0 0" style="stroke:none;fill-rule:nonzero;fill:#eb8f00;fill-opacity:1"/><path d="M9.7 11.55c0 .887-.712 1.598-1.598 1.598-.891 0-1.602-.71-1.602-1.597s.71-1.602 1.602-1.602c.886 0 1.597.727 1.597 1.602M10.71 5.863c.528 0 1 .438 1 1.176 0 .734-.472 1.172-1 1.172-.523 0-1-.438-1-1.172 0-.738.477-1.176 1-1.176M5.273 5.863c-.523 0-1 .438-1 1.176 0 .734.477 1.172 1 1.172.528 0 1-.438 1-1.172 0-.738-.472-1.176-1-1.176m0 0" style="stroke:none;fill-rule:nonzero;fill:#242424;fill-opacity:1"/><path d="M83.406 31.313h-.094c-2.218-.063-2.78-3.25-.312-3.688 1.844-.281 3.875-.25 5.844.063 5.531.812 10.219 3.875 13.219 7.718 1.5 1.969-1.157 3.907-2.782 2.407-4.219-3.688-9.875-6.22-15.875-6.5ZM44.844 31.313h.093c2.22-.063 2.782-3.25.313-3.688-1.844-.281-3.875-.25-5.844.063-5.531.812-10.218 3.875-13.218 7.718-1.5 1.969 1.156 3.907 2.78 2.407 4.22-3.688 9.876-6.22 15.876-6.5Zm0 0" style="fill-rule:nonzero;fill:#eb8f00;fill-opacity:1;stroke-width:1;stroke-linecap:butt;stroke-linejoin:miter;stroke:#eb8f00;stroke-opacity:1;stroke-miterlimit:10" transform="scale(.125)"/></svg>
